boxicons/svg/logos/bxl-medium-old.svg

<svg xmlns="http://www.w3.org/2000/svg" width="24" height="24" viewBox="0 0 24 24"><path d="M21.957 6.73a.073.073 0 0 0-.019-.097c-.004-.004-.008-.008-.012-.01l-.006-.002-6.033-3.018a.729.729 0 0 0-.292-.067.692.692 0 0 0-.586.317l-3.474 5.646 4.359 7.083 6.063-9.852zm-1.064 13.543c.611.306 1.107.092 1.107-.478V8.483l-5.809 9.439 4.702 2.351zM9.622 8.213v6.426l5.711 2.855zm-7.068 9.558 5.19 2.595a.845.845 0 0 0 .374.098c.323 0 .549-.25.549-.669V6.701a.067.067 0 0 0-.035-.059L2.739 3.697a.669.669 0 0 0-.3-.079c-.258 0-.439.199-.439.534v12.723c0 .341.25.744.554.896z"/></svg>

<svg xmlns="http://www.w3.org/2000/svg" width="24" height="24" viewBox="0 0 24 24"><path d="M21.957 6.73c.021-.034.01-.074-.019-.097-.004-.004-.008-.008-.012-.01L21.92 6.621l-6.033-3.018c-.041-.02-.083-.033-.126-.045-.056-.014-.11-.022-.166-.022-.231 0-.462.116-.586.317l-3.474 5.646 4.359 7.083L21.957 6.73zM20.893 20.273C21.504 20.579 22 20.365 22 19.795V8.483l-5.809 9.439L20.893 20.273zM9.622 8.213L9.622 14.639 15.333 17.494zM2.554 17.771l5.19 2.595c.132.066.259.098.374.098.323 0 .549-.25.549-.669V6.701c0-.025-.014-.048-.035-.059L2.739 3.697c-.107-.054-.208-.079-.3-.079C2.181 3.618 2 3.817 2 4.152v12.723C2 17.216 2.25 17.619 2.554 17.771z"/></svg>
